X:1
T:Tomás Luis de Victoria 1548 - 1611
T:Ne timeas Maria
T:In Annuntiatione Beatæ Mariæ
%%score [ 1 2 3 4 ]
L:1/8
Q:1/4=240
M:4/4
K:C
V:1 treble nm="Cantus"
V:2 treble nm="Altus"
V:3 treble nm="Tenor"
V:4 treble nm="Bassus"
V:1
"^A""^;" x2"^U" | G16 x8 | c12 A4 | A8 d8 | B6 c2 d4 c8 | B4 c6 BA G8 x4 | x8- x8 x4 | x4 x4 x8 | %8
w: |Ne|ti- me-|as Ma-|ri- * * *||a,||
[M:4/2] z8 z4 c4 x4 | f12 e4 x8 | e16 x4 | z4 G4 c12 | A4 A8 x4 | z4 G4 A4 c8 | B4 c16 | z8 z16 | %16
w: Ne|ti- me-|as,|Ne ti-|me- as|Ma- ri- *|* a||
 e6 e2 e4 c4 | d4 e4 f6 f2 x4 | e8 z8 x4 | z8 z4 c6 | c2 c4 A4 B4 x6 | c8 d6 c2 | %22
w: in- ve- ni- sti|e- nim gra- ti-|am,|in-|ve- ni- sti e-|nim gra- *|
 d2 e2 f6 e2 e2 dc x4 | d4 d4 e16 | z4 x4- x12 | x4 ^c4 d12 | d4 B8 B8 | c4 A8 G4 x4 | A8 G12 | %29
w: |* ti- am|a-|pud do-|mi- num, a-|pud do- *||
 G4 x16 | G8 z8 | c8 A4 A4 x4 | B6 B2 c8 | z4 c4 d4 e4 | f12 e4 x8 | e8 x8- | x8 d12 | d4 e16 | %38
w: mi-|num|ec- ce con-|ci- pi- es,|con- ci- *|* pi-|es in\_\_\_|u-|te- ro,|
 z8 z8 | z4 d8 g6 | f2 e2 d2 e4 f6 | e2 x4- x10 | x2 c2 c8 B4 | c16 x8 | z8 z4 G4 | c6 A2 B4 x4- | %46
w: |in u-|||* * te-|ro|et|pa- ri- es fi-|
 x2 c2 d4 e4 f6 | e2 e8 d4 e8 | z8 z16 | z16 x6 | e16 x6 | d8 f8 | e4 d2 c2 d8 | e12 e4 x2 | %54
w: |* * li- um|||et|vo- ca-||* bi-|
 d8 z4 c4 x6 | g8 f4 d4 | e12 d4 | c4 A4 B8 x2 | z4 c4 f8 x4 | e4 c4 e4 d4 x4 | c8 z4 G4 | %61
w: tur al-|tis- si- mi|fi- *|* li- us,|al- tis-|si- mi fi- li-|us, al-|
 c8 B4 G4 | A4 G6 E2 e4 x2 | d4 c4 B4 c8 | B2 A2 B4 B4 x8 |"^-" x16- x4 | x16 | x16 | x8 x8 |] %69
w: tis- si- mi|fi- * * *||* * * li-|us.||||
 x20 | x16 |] %71
w: ||
V:2
"^C""^;" x2"^U" | z8 C16 | F12 D4 | D8 G8 | F4 E4 D8 x4 | E16 x8 | z4 C4 F12 | D4 x12 | %8
w: |Ne|ti- me-|as Ma-|ri- * *|a,|Ne ti-|me-|
[M:4/2] D8 z8 x4 | z4 D4 G12 x4 | E4 E4 C4 E6 x2 | F2 G4 A4 E8 x2 | z4 x4- x8 | x2 G2 G8 ^F4 x4 | %14
w: as,|Ne ti-|me- as Ma- ri-|* * * a,|Ma-||
 G8 E4 G6 x2 | G2 G4 E4 F4 G4 x6 | A6 G2 A2 B2 x4 | c6 BA G4 A8 | G4 F4 D4 E8 | E6 E2 E4 C4 x2 | %20
w: ri- a in-|ve- ni- sti e- nim|gra- * * *||* * ti- am,|in- ve- ni- sti|
 D4 E4 F12 | D4 x12 | C4 c8 B2 A2 x4 | B4 A2 G2 A2 B2 c8 x4 | B4 c8 z4 x4 | c8 c4 x8 | %26
w: e- nim gra-|ti-|am, gra- * *||ti- am|a- pud|
 B4 A2 G2 A12 | A4 G16 | z4 C4 D8 x4 | E4 F4 D12 | D4 x12 | E8 z8 x4 | A8 ^F4 F4 | G6 G2 E4 G4 | %34
w: do- * * *|mi- num,|a- pud|do- * *|mi-|num|ec- ce con-|ci- pi- es, con-|
 c6 B2 A4 G4 x8 | F4 D4 G8 | z4 G4 A6 G2 x4 | A2 B2 c2 A2 B4 A2 G2 x4 | A4 B4 c8 | G16 x2 | %40
w: ci- * * *|* pi- es|in u *||* te- ro,|in|
 A12 A4 | B8 z4 G4 | c2 B2 A2 G2 F4 G4 | A4 ^F4 G16 | z4 C4 G6 G2 | A4 G8 ^F4 | G4 B4 x10 | %47
w: u- te-|ro, in|u * * * * *|* te- ro|et pa- ri-|es fi- li-|um, et|
 B6 A2 B4 c6 x4 | B2 B2 AG A4 B4 c4 x6 | C4 G6 G2 A4 x6 | G8 ^F4 G8 x2 | z8 x8 | G16 | G8 A8 x2 | %54
w: pa- ri- es fi-|* * * * * li- um,|et pa- ri- es|fi- li- um,||et|vo- ca-|
 G12 G4 x6 | G16 | z4 G4 c8 | B4 G4 A4 G6 | F2 E2 D2 C4 B,4 C4 x2 | D6 C2 B,2 A,2 B,4 x4 | %60
w: * bi-|tur|al- tis-|si- mi fi- *|||
 C8 B,4 x4 | C4 G,4 G8 | E4 C4 D4 E6 | D2 E2 C2 D4 C8 x2 | B,4 C4 G4 A8 | G4 ^F4 G12 | G4 x12 | %67
w: * li-|us, al- tis-|si- mi fi- *||li- us, al- tis-|si- mi fi-|li-|
 E8 z4 G4 | c4 A4 G8 |] A12 A4 x4 |"^-" x8- x8 |] %71
w: us, al-|tis- si- mi|fi- li-|us.|
V:3
"^C""^;" x2"^U" | z16 x8 | z16 | z16 | z16 x4 | G,16 x8 | C12 A,4 x4 | A,8 D8 | %8
w: |||||Ne|ti- me-|as Ma-|
[M:4/2] B,6 C2 D4 C8 | B,4 C8 z4 x8 | C4 G12 x4 | E4 E8 A6 x2 | G2 F2 E2 F4 x6 | E4 D4 C8 x4 | %14
w: ri * * *|* a,|Ne ti-|me- as Ma-||ri- * *|
 D8 C8 x4 | E6 E2 E4 C4 x8 | D4 E4 F2 E2 F2 G2 | A4 G2 F2 E2 D2 E4 x4 | D4 C8 B,4 x4 | %19
w: * a|in- ve- ni- sti|e- nim gra * * *||* * ti-|
 C4 G6 G2 G4 x2 | E4 F4 G8 x4 | A12 G2 F2 | E8 z4 G8 | F2 E2 D4 C4 G8 x4 | z4 G8 E8 | x4- x16 | %26
w: am, in- ve- ni-|sti e- nim|gra- ti- *|am, gra-|* * * ti- am|a- pud|do|
 x2 G2 G8 ^F2 E2 x4 | ^F4 F4 G4 D8 | E8 F6 E2 x4 | D6 C2 C8 x4 | B,2 A,2 B,4 B,4 x4 | C4 G8 E8 | %32
w: |* mi- num a-|pud do- *||* * * mi-|num ec- ce,|
 A8 D8 | G4 G2 F2 E2 D2 C2 B,2 | A,6 B,2 C8 x8 | B,4 C12 | C4 F6 E2 x8 | F2 G2 A4 G4 ^F2 E2 x4 | %38
w: ec- ce|con- ci * * * * *||pi- es|in u- *||
 ^F4 G4 C8 | z4 C4 E2 F2 G2 E2 x2 | F4 E2 D2 E4 ^F4 | G4 D4 E8 | C8 D8 | E4 D2 C2 D4 D4 x8 | %44
w: * te- ro,|in u * * *|* * * * te-|ro, in u-||* * * * te-|
 C4 E4 E6 C2 | D4 E6 D2 D2 CB, | C4 C4 D4 G,4 x2 | G6 F2 G4 A6 x4 | G2 G2 FE F4 G6 x8 | %49
w: ro et pa- ri-|es fi- * * * *|* li- um, et|pa- ri- es fi-||
 F2 E4 D4 E6 x6 | D2 D2 CB, C4 C4 D8 | z8 x8 | C16 | B,8 C4 D6 | C2 C8 B,4 C8 | z4 C4 G8 | %56
w: |* * * * * li- um||et|vo- ca- *|* * bi- tur|al- tis-|
 E4 C4 x8 | D4 C8 B,4 x2 | C6 D2 E2 F2 G8 | ^F4 G4 D4 G8 | F4 D4 x8 | E6 D2 C4 B,4 | %62
w: si- mi|fi * *||li- us, al- tis-|si- mi|fi- * * *|
 A,4 A,4 G,8 x2 | z4 C4 G8 x4 | F4 D4 E8 x4 | F6 E2 D4 C4 x4 | D8 z4 D4 | G8 E4 C4 | E4 F8 E4 |] %69
w: * li- us,|al- tis-|si- mi fi-|* * * li-|us, al-|tis- si- mi|fi- * *|
 F2 E2 F2 G2 A4 F8 | E2 D2"^-" x8 x4 |] %71
w: |li- *|
V:4
"^C""^;" x2"^U" | z16 x8 | z16 | z16 | z16 x4 | z8 C,16 | F,12 D,4 x4 | D,8 x8 | %8
w: |||||Ne|ti- me-|as|
[M:4/2][K:treble-8] G8 F4 E4 x4 | D8 C16 | z4 C4 c12 | A4 A8 d8 | c4 B4 A8 | G8 C8 x4 | %14
w: Ma- ri *|* a,|Ne ti-|me- as Ma-|ri- * *|* a|
 c6 c2 c4 A4 x4 | B4 c4 d6 cB x8 | A2 B2 c6 B2 A2 G2 | F4 E4 D4 D4 x4 | C8 c6 c2 x4 | %19
w: in- ve- ni- sti|e- nim gra- * *||* * * ti-|am, in- ve-|
 c4 A4 B4 c4 x2 | F6 E2 F4 G4 x4 | A4 A4 G8 | z16 x4 | z8 c16 | A8 x12 | e8 d12 | d4 G8 G8 | %27
w: ni- sti e- nim|gra- * * *|* ti- am||a-|pud|do- *|mi- num, a-|
 A8 _B8 x4 | A4 F4 G12 | G4 x16 | C8 c8 | A8 d8 x4 | G4 G4 c6 B2 | A2 G2 F8 E4 | D4 D4 C16 | %35
w: pud do-||mi-|num ec-|ce, ec-|ce con- ci- *||* pi- es|
 z8 x8 | z16 x4 | z8 z4 C4 x4 | c6 B2 c2 d2 e4 | d4 ^c2 B2 !courtesy!^c4 d4 x2 | G4 G4 c6 B2 | %41
w: ||in|u- * * * *|* * * * te-|ro, in u- *|
 A4 F4 _B8 | A8 G8 | z4 C4 c6 A2 x8 | B4 c6 B2 B2 AG | A4 A4 G8 | z16 x2 | z8 z4 G4 x6 | %48
w: |te- ro|et pa- ri-|es fi- * * * *|* li- um,||et|
 c6 A2 B4 c6 x6 | B2 B2 AG A4 A4 G8 | z8 x14 | C16 | G8 F8 | G12 G4 x2 | C4 C4 c8 x6 | B4 G4 A8 | %56
w: pa- ri- es fi-|* * * * * li- um||et|vo- ca-|* bi-|tur al- tis-|si- mi fi-|
 G4 E4 F4 G4 | C8 z8 x2 | z4 D4 G8 x4 | E4 C4 D6 D2 x4 | C8 z4 G4 | c8 B4 G4 | A8 G4 E4 x2 | %63
w: * * * li-|us,|al- tis-|si- mi fi- li-|us, al-|tis- si- mi|fi- * *|
 F4 G4 C4 C4 x4 | F8 G4 A4 x4 | G12 G4 x4 | C4 C4 c8 | A4 F4 c8 | F12 F4 |]"^-" x8- x8 x4 | x16 |] %71
w: * li- us, al-|tis- si- mi|fi- li-|us, al- tis-|si- mi fi-|* li-|us.||

